X:378
T:Auckland Police Pipe Band, The 
C:Joe Buchanan's Scottish Tome - Page 042.0
I:042 0
R:March
Z:Carl Allison
L:1/8
M:2/4
K:G
GA | BddB A2 G>A | BDE<G D2 G>A | B2 Bd BGdB | A2 A>B A2 GA |
BddB A2 G>A | BDE<G D2 G>A | BDGB dBA>B | G2 G>A G2 :|
Bc | d2 d>B G2 G>A | BAGE D2 B>c | d2 dc B/GdB | A2 A>B A2 Bc |
d2 d>B G2 G>A | BAGE D2 G>A | BDGB dBA>B | G2 G>A G2 :|
FE | D2 D>E D2 GA | BdBA B2 G>E | D2 D>G BdBG | A2 A>B A2 GE |
D2 D>E D2 G>A | BdBA B2 G>A | BDGB dBAB | G2 G>A G2 :|
Bc | d>cBA G2 GD | ECEG D2 B>c | d2 Bd BGdB | A2 A>B A2 Bc |
d>cBA G2 GD | ECE>G D2 G>A | BDGB dBA>B | G2 G>A G2 :|

